X: 29863
T: O'Hanlon's Bridge
R: jig
M: 6/8
K: Adorian
cBA EAA|EAc edc|dBG DGG|DGB edB|
c2 A EAA|EAe d2 f|gfg dBG|AB/A/G A2:|
aee Ace|aec baf|gdd baf|gdB GG/A/B|
cee AA/B/c|Bdd e2 f|g2 g dBg|ABG A2:|

